X:1921
T:Bourre droite du Morvan
C:Trad 2, 39
M:3/8
L:1/16
K:G
G2|F2ABAF|G2BGBd|c2AFAc|B4G2|\
F2ABAF|G2BGBd|c2AFAF|G4:|
|:GB|d2e2B2|d4AB|c2dcBA|B2G2GB|\
d2e2B2|d4AB|c2dcBA|G4:|
